X:158
T:Reel 158
M:4/4
K:Dmaj
L:1/8
 (3ABc |:d2cA BAFE|DEFD EDB,C|DCDE FEFA| (3Bcd ec dcBA|d2cA BAFE|DEFD EDB,C|DCDE FEFA| (3Bcd ec d2Ac|B2AF B2AF|D2FD EDB,C|D2AF B2AF|EDFD EDCA,|d2AF  (3BdB AF|A2FD CA,A,C|DCDC DEFG|AFEF D2|
